X:56
T: Kincsem adta Borcsa
K: F
M: 2/4
L: 1/4
a/g/f | f/g/a/g/ | 
f/e/d | d/g/f/g/ | 
c/d/c | c/d/ c | 
fe/d/ | ga/g/ | 
d/B/B/F/ | B/c/d/c/ | 
B/A/G | G/A/G | 

